X:1
T:Trio Sonata B-Dur, HWV388 for 2 Oboes and Continuo
T:George Frideric Handel (1685 — 1759) Arr. by : Hans Sitt (1850-1922).
T:Trio Sonata B-Dur, HWV388
T:for 2 Oboes and Continuo Transcribed for Recorder, Traverso and B/C in D-Dur from IMSLP#251733 PDF File
T:Public Domain
T:Public Domain
T:Public Domain
T:Public Domain
T:Public Domain
T:Public Domain
T:Public Domain
T:Public Domain
T:Public Domain
T:Public Domain
T:Public Domain
C:George Frideric Handel (1685 — 1759)
Z:Public Domain
%%score [ 1 2 3 ] { ( 4 5 7 9 ) | ( 6 8 ) }
L:1/8
Q:1/4=70
M:4/4
K:D
V:1 treble nm="Alto Recorder" snm="A. Rec."
V:2 treble nm="Traverso" snm="Trv."
V:3 bass nm="Viola da gamba" snm="Vla. d. g."
V:4 treble nm="Harpsichord" snm="Hch."
V:5 treble 
V:7 treble 
V:9 treble 
V:6 bass 
V:8 bass 
V:1
"^1. Andante." d3 (b/a/ a)f/>e/ (db) | (a!>(!f/>e/) (d{ef}g)!>)! fdBc | %2
w: ||
 (d/c/)!tenuto!d/!tenuto!B/ (g/f/g/e/) f2 z2 | z8 | z4 z d'2 c' | d'a b2- be a2- | %6
w: ||||
 a!>(!b/c'/ (^g>a)!>)! a2 z (e/d/) | b3 !tenuto!c'/!tenuto!d'/ a3 !tenuto!d'/b/ | %8
w: ||
 g-gg-g (Tg/f/f) (f/4g/4!>(!a/) (g/4a/4f/) | (f>!>)!e) e2- eA d2- | de(cB) c2 (B>A-) | A2!p! (a6 | %12
w: ||||
 a8-) | a4-!mf! a d2 (b/a/) | (af/>e/) (db/a/)!<(! af/>e/ d(d'/!<)!c'/) | %15
w: |||
 (c'/b/)(b/a/) (a/g/)(g/f/) (fe)(gf) |!>(!{ga} (ba)(c>d) eA!>)!!p! f2- | %17
w: ||
 f!tenuto!e/!tenuto!d/ g2- g!tenuto!f/!tenuto!e/ a2- | a!tenuto!g/!tenuto!f/ g2- g!tenuto!f(fe) | %19
w: ||
 ed g2-!<(! g/(e/f/!tenuto!g/) (fe/d/)!<)! |!mf! d3 (b/a/) (af/(e/) dg/f/) | %21
w: ||
 fdB!<(!c (d/(c/)!tenuto!d/!tenuto!B/ (g/f/!<)!g/e/)) | %22
w: |
!f! f d'2 (c'- c'/>a/)(b-!>(! b/>^g/)!>)!(a | %23
w: |
!>(! a/>f/)(=g- g/>e/)(f/>!>)!g/)!p! (f/e/)(g/f/) (f/e/)(g/f/) | %24
w: |
!<(! (a/g/)(b/a/) (a/g/)!<)!(g/f/) (f/e/)!>(!(g/f/) (Tf/>e/f/g/) | e2!>)! z (a/e/) e3 (a/e/) | %26
w: ||
 e3 (b/!<(!e/) (ef/g/) (f!<)!e/d/) |[Q:1/4=56]"^Adagio." df a4 ^g2 | a8 |] %29
w: |||
[M:4/4][Q:1/4=120]"^2. Allegro."!f! a4 .d2 z!mf! .d | .e.e (Te3/2d/4e/4) fF z f | %31
w: ||
 .g.g (Tg3/2f/4g/4 .a).A z .a | .b.b (Tb3/2a/4b/4) .c'.a(d'.f) | %33
w: ||
 .ge.A!f!.a .fa/!>(!g/ (f/e/)!>)!f/d/ | .c!mf!.e!>)!!>(! a2- ab/a/!>)!!>(! (^g/a/)f/g/ | %35
w: ||
 ae/d/ c/B/A/^G/ Ff/e/ d/c/B/A/ | .^G.B (e2- e!>(!.A)!>)! d2- | d2 c2 B4 | %38
w: |||
 A2!>)!!>(! (.a2- a.d!>)!!>(! g2-) | g2 .f.g e3 d/e/ | .f.d d'2- d'e'/d'/ c'/d'/b/c'/ | %41
w: |||
 .a.A!>)!!>(! (a2- a!>(!.b)!>)! g2- | ga/g/ f/g/e/f/ d2 z .B | .A.c d4 c2 | %44
w: |||
 d2!>)!!>(! b4!>)!!>(! a2- | a2!>)!!>(! g4 .f2 | %46
w: ||
 .e2 z c !tenuto!B/!tenuto!A/!tenuto!B/!tenuto!c/ !tenuto!B/!tenuto!e/!tenuto!d/!tenuto!e/ | %47
w: |
 c/B/c/d/ c/d/e/c/ d/c/d/e/ d/g/f/g/ | e/d/e/f/ e/f/g/e/ f/e/f/g/ f/b/a/b/ | %49
w: ||
 e/d/e/f/ e/a/g/a/ d/e/c/d/ B/e/d/e/ | c/d/B/c/ .A/(d/c/d/) .B/(e/d/e/) .c/(f/e/f/) | %51
w: ||
 .d/(g/f/g/) .e/(a/g/a/)!<(! f/d/e/f/ g/e/!<)!f/g/ | a/f/e/f/ d/a/g/a/ b/g/f/g/ e/b/a/b/ | %53
w: ||
 c'/a/g/a/ f/c'/b/c'/ d'/b/a/b/ c'/a/g/a/ | b/g/f/g/ a/f/e/f/ g/e/d/e/ f/d/c/d/ | %55
w: ||
 .e.A!>)!!>(! d2- dc/B/ c/d/e/c/ | .f.d!>)!!>(! g2- g!>(!f/g/ e/f/g/!>)!e/ | .fa!>)!!>(! d'4 c'2 | %58
w: |||
 d'!>(!.a.f.d!>)! d2!mf! .c.e | A2!>)!!>(! (d2- dB)!>)!!>(! g2- | g2!f! f2!>)!!>(! e4 | %61
w: |||
 d4!>)!!>(!!>)!!>(! c4 | .B2 z2 z4 | z2 z!p! .F .^G.G (TG3/2F/4G/4) | .^A.F!>)!!>(! B4 A2 | %65
w: ||||
!mf! b4 .e2 z .e | .f.f (Tf3/2e/4f/4) .g.e =c'2- | c'.f .b2 z =c!>)!!>(! (a2 | %68
w: |||
 a).b!<(!.g.f g2!<)! (f>e) | %69
w: |
!f! !tenuto!e/!tenuto!B/!tenuto!e/!tenuto!g/ !tenuto!b/!tenuto!g/!tenuto!e/!tenuto!g/ f/B/^d/f/ b/a/g/f/ | %70
w: |
 .g.e z2 z4 | e/B/e/g/ b/g/e/B/ c/A/c/e/ a/g/f/e/ | .f.d z2 z4 | %73
w: |||
 f/d/f/a/ f/d/f/a/ ^g/f/g/b/ g/f/g/b/ | ^e/c/e/^g/ e/c/e/g/ f/c/f/a/ f/c/f/a/ | %75
w: ||
 ^g/c/^d/^e/ f/g/a/b/!>)!!>(! c'4 | .f2 z .f .^g.g (Tg3/2f/4g/4) | .^a.f!>)!!>(! b4!>)!!>(! =a2- | %78
w: |||
 a2 =gf/e/ .f.f (Tf3/2e/4f/4) | .^g.e!>)!!>(! a4!>)!!>(! (=g2- | gf)!tenuto!f!tenuto!g e2 (a2 | %81
w: |||
 a2) (d'2- d'c')!tenuto!c'!tenuto!b | .a.A!>)!!>(! (a2- ab)!tenuto!g!tenuto!f | %83
w: ||
 .e.A!>)!!>(! f2- fg/f/ e/f/g/e/ | .a.d z .d gggg | (.g.f)!>)!!>(! b4!>)!!>(! a2 | a2 g4 f/g/a/f/ | %87
w: ||||
 b/a/g/f/ e/d/c/B/ c/A/c/e/ c/A/c/e/ | (d/A/)d/f/ (d/A/)d/f/ c/A/c/e/ c/A/c/e/ | %89
w: ||
 d/A/d/f/ d/A/d/f/ .e.A z2 | z4!f! a4 | d2 z .B .c.A d2- | d2 c2 d2 z .a | %93
w: ||||
 .b.b (Tb3/2a/4b/4) c'a(d'.g) | f2 (e>d) d2 z2 |][M:3/4]"^3. Larghetto."[Q:1/4=56] z2!mf! f2 (gf) | %96
w: |||
!>(! f6!>)! | z6 | z!mf! !tenuto!g!tenuto!f!>(!!tenuto!e!tenuto!d!tenuto!c | (d>c)!>)! B2 z2 | %100
w: ||||
 z2!mf! b2 (=c'b) |!>(! b6!>)! | z6 | z!mf! !tenuto!=c'!tenuto!b!>(!!tenuto!a!tenuto!g!tenuto!f | %104
w: ||||
 (g>f)!>)! e2 z2 | z2!mf! a2 (ba) |!>(! a6!>)! | z6 | %108
w: ||||
 z!mf! !tenuto!b!>(!!tenuto!a!tenuto!g!tenuto!f!>)!!tenuto!e |!p! f2 f3 !tenuto!f | %110
w: ||
 (fe) a3 !tenuto!a | (ag) g3 !tenuto!g | (gf) f3 !tenuto!b | (ba-)!<(! a3 !tenuto!a | %114
w: ||||
 (a^g) g2!<)! z2 | z2!f! c'2 (d'c') |!>(! c'6!>)! | z6 | %118
w: ||||
 z!mf! !tenuto!d'!tenuto!c'!>(!!tenuto!b!tenuto!a!tenuto!^g!>)! | %119
w: |
 !tenuto!a!tenuto!b !tenuto!a2 (^g>f) |!p! !tenuto!f!tenuto!a(af)(e>d) | (ea)(ae)(d>c) | %122
w: |||
 (da)(ad)(c>B) | (c3 B) A2 | z6 | z6 | z6 | %127
w: |||||
 z!p! !tenuto!e!tenuto!c!<(!!tenuto!A!tenuto!B!tenuto!c!<)! | d6- | d(Be)!tenuto!d(cB) | %130
w: |||
!mf! c3 !tenuto!B/!tenuto!A/ d2- | d!>(!!tenuto!e (c3!>)! d) | d2!p! f3 !tenuto!f | %133
w: |||
 g2 .T^g3 !tenuto!f/!tenuto!g/ | a2 ^a3 !tenuto!a | !tenuto!b(fb=a)!tenuto!^g!tenuto!f | %136
w: |||
 (!tenuto!^g!<(!cc'b)!tenuto!^a!<)!!tenuto!g |!mf! !tenuto!^a(fd'c')!tenuto!b!tenuto!a | %138
w: ||
 b2 (B3 e) |!<(! (e2 (c3!<)! f)) |!f! (=d=c')!tenuto!b!tenuto!a(gf) |!>(! (gf)(fe)(d>!>)!e) | %142
w: |||. * * * * *|
 c4 z2 | z2!mf! f2 (gf) |!>(! f6!>)! | z6 | %146
w: ||||
 z!mf! !tenuto!g!tenuto!f!tenuto!e!>(!!tenuto!d!tenuto!c | (de)!>)! d2 (c>B) | %148
w: ||
 B2 !fermata!f2 z!p! f | (fg)!<(! (e3!<)! f) |!>(! f6!>)! |] %151
w: |||
[M:4/4]"^4. Allegro."[Q:1/4=120] z2 z!mf! (f/g/) .a.d.d.d | (ed).d.d!>)!!>(! (ed).d.d | %153
w: ||
 (g/>a/b) a2 z .e.f.d | (e/>f/g) f2- f.g/.f/ .e.d | (c/B/).c/.d/ .e.f e.c/.d/ .e.f | %156
w: |||
 .e/.d/.c/d/ .e.f- (Tfe) z/ .A/.B/.c/ |!<(! .d/.e/!<)!.f/.g/ .a.=c (TcB) z/ .B/.^c/.^d/ | %158
w: ||
!<(! .e/.f/.^g/!<)!.a/ .b.d (Td!>(!c) z .e | .=f.f.f.f!>)! (Tfe) z!pp! .e | %160
w: ||
 .=f.f.f.f (Tfe) z/!f! .A/.B/.c/ | .d/e/.f/.g/ .a.d .b.d (a2 | a).d.g.g .g.f/.e/ .a.g | %163
w: |||
 .f.e/.d/ (c>d) d2 z2 | z8 | z8 | z8 | z4 z2 z!mf! d | %168
w: |||||
 !tenuto!c/!tenuto!A/!tenuto!c/!tenuto!e/ !tenuto!a/!tenuto!g/!tenuto!f/!tenuto!e/ f/A/d/f/ a/f/e/d/ | %169
w: |
 c/A/c/e/ a/g/f/e/ f/d/f/a/ f/d/f/a/ | e/c/e/a/ e/c/e/a/ B/c/d/B/ g/f/e/d/ | %171
w: ||
 .c/(A/^G/A/) .d/(A/G/A/) .e/!>)!!>(!(A/B/c/) d/f/e/=g/ | %172
w: |
!>(! .f/(d/c/d/)!>)!!>(! .g/(d/c/d/)!>)!!>(! .a/(d/e/f/) g/b/a/=c'/!>)! | %173
w: |
!>(! .b/(g/f/g/)!>)!!>(! e/(^c'/b/c'/) d'/a/g/a/ f/g/e/f/!>)! | %174
w: |
 .d/(d'/c'/d'/) b/c'/a/b/ (^g/e/)g/b/ (g/e/)g/b/ | %175
w: |
 (a/e/)a/c'/ (a/e/)a/c'/!<(! b/e/f/^g/ a/b/!<)!c'/b/ |!f! .a.e z2 z .a.a.a | (Tba).a-.a (Tf2 e2) | %178
w: |||
 z (d/>c/).d.d (bd).d.d | (bd).d.d .a(c/>B/) .c.c | .a(c/>B/) .c.c (TcB) z!p! .b | %181
w: |||
 =c'.c'c'c' (Tc'b) z!pp! .B | .=c.c.c.c (.cB) z/!f! e/d/e/ | %183
w: ||
 ^c/e/d/e/ B/e/d/e/ c/e/d/e/ A/a/^g/a/ | f/d/c/d/ B/b/a/b/ ^g/e/d/e/ c/(c'/b/c'/) | %185
w: ||
 a/f/e/f/ .dd' d'3 c'/b/ | (c'/b/).a/.b/ .e.^g a2 z!p! (a/b/) | !tenuto!c'(f^ef) !tenuto!c'(fef) | %188
w: |||
!<(! .!tenuto!c'((f^e)!<)!f)!f! .c.f z!p! !tenuto!b | !tenuto!b(e^de) !tenuto!b(ede) | %190
w: ||
!<(! !tenuto!b(e^d!<)!e)!f! .B.e z !tenuto!a | !tenuto!a(dcd)!<(! !tenuto!a(dc!<)!d) | %192
w: ||
!mf! g2 (f>g) e2 z!p! .e | .=f.f.f.f!>)!!>(! (Tfe) z!pp! .e | .=f.f.f.f!>)!!>(! (Tfe) z!f! .e | %195
w: |||
 .e.e.ee e3 (g/f/) | (d>c)(c>B) B2 z2 | z4!mf! B/F/B/d/ B/d/c/B/ | %198
w: |||
 c/F/c/e/ c/e/d/c/ d/B/d/f/ b/a/b/f/ | g/f/g/e/ a/g/a/e/ f/e/f/d/ g/f/g/d/ | %200
w: ||
 e/d/e/c/ f/e/f/c/ d/B/e/c/ f/d/B/b/ | ^a/f/!<(!b/f/ c'/e/f/c/ ^d/B/d/f/ b/=a/!<)!b/f/ | %202
w: * * . * * * * * * * * * * * * *||
!f! g/e/g/b/ g/e/g/b/ f/^d/f/b/ f/d/f/b/ | %203
w: |
 g/!>(!(b/a/b/) .e/!>)!(b/a/b/)!>)!!>(! =c'/(a/g/a/) .e/!>)!!>(!(a/g/a/) | %204
w: |
 .f/(a/g/a/) .d/!>)!!>(!(a/g/a/)!>)!!>(! .b/(g/f/g/) .d/(g/f/g/) | %205
w: |
 .e/(g/f/g/) a/f/g/e/!<(! ^d/B/c/d/ e/f/g/a/!<)! |!f! .b.e z2 z .e.e.e | %207
w: ||
 (T=fe).e-.e (a/>b/=c') b2 | z .e a2- a.b.g.f | g2 (Tf>e) e2 z2 | z4!f! e/B/e/g/ e/g/f/e/ | %211
w: ||||
 f/B/f/a/ f/a/g/f/ g/b/a/b/ e/g/f/g/ | ^c/e/d/e/ A/a/g/a/ .f.d z2 | z4!f! d/A/d/f/ d/f/e/d/ | %214
w: |||
 e/A/e/g/ e/g/f/e/ .f/(a/g/a/) b/a/b/d/ | .e/(g/f/g/) a/g/a/c/ .d/(f/e/f/) g/f/g/B/ | %216
w: ||
 c/B/A/B/ c/d/e/f/ d/c/B/c/ d/e/f/g/ | e/d/c/d/ e/!<(!f/g/a/ f/d/e/f/ g/e/f/!<)!g/ | %218
w: ||
 .a!mf!.d.d.d (Ted).d.d |!>(! (Ted).d.d (g/>a/b) a2!>)! | z .e.f.d (e/>f/g) f2- | %221
w: |||
 f.g/.f/ .e.d (c/B/).c/.d/ .e.f | .e.c/.d/ .e.f .e/.d/.c/.d/ .e.f | %223
w: ||
!>(! (Tfe) z/ .A/!<(!.B/.c/ .d/.e/!<)!.f/.g/ .a.=c!>)! | %224
w: |
 (T=cB) z/ .B/!<(!.^c/.d/ .e/.f/!<)!.^g/.a/ .b.d | (Tdc) z!p! .e .=f.f.f.f | %226
w: ||
!>(! (T=fe) z!pp! .e .f.f.f.f!>)! |!>(! (T=fe) z/!f! .A/.B/.c/ .d/.e/.^f/.g/ .a.d!>)! | %228
w: ||
 .b.d a2- ad.g.g | .g.f/.e/ .a.g .f.e/.d/ .A.c | d/e/f/g/ .a.d b/a/g/f/ .g.b | %231
w: |||
 (Tc'3/2b/4c'/4) (.d'.g) (f>e) (Te>d) | !fermata!d6 z2 |] %233
w: ||
V:2
 z8 | z8 | z4 d3 (b/a/) | (af/>e/) (db) ((af/>e/) (d{ef}g)) | %4
 fdBc (d/c/)!tenuto!d/(!tenuto!B/ g/f/g/e/) | f2 z (f/e/) e3 G | d3 e c!tenuto!B/!tenuto!A/ (f2 | %7
 f)!tenuto!e/!tenuto!d/ g2- g!tenuto!f/!tenuto!e/ f2- | %8
 f(e/d/) e-!tenuto!e (e/d/)d (d/4e/4!>(!f/) (e/4f/4d/) | (dc)!>)! z2 F3 B | ^GE A4 G2 | %11
!mf! A3 (f/e/) (ec/B/) (Af) | (ec/B/) (Ag/f/) (fe/d/) (cd) |!>(! e(AB)c!>)!!p! d4- | d8- | %15
!mf! d4- (dc)(dc) |!>(! (Bd)(GF) c2!>)! z!p! F | B2 z e c2 z f | d2 z b (c'd')(g>a) | %19
 f3 (e/d/)!<(! (cd)(dc)!<)! | d4-!mf! d3 (b/a/) | (af/>e/) (d({ef)}g) fdBc | %22
 d/c/d/B/ g/f/g/e/!f! (f>d)(e>c) | (d>B) c(d/e/)!p! (d/c/)(e/d/) (d/c/)(e/d/) | %24
 (f/e/)(g/f/) (f/e/)(e/d/) (d/c/)(e/d/) (Td/>c/d/e/) | !tenuto!cB/A/ d6- | d4- d/(c/d/e/) (dc) | %27
 d2 z e d4 | c8 |][M:4/4] z8 | z8 | z8 | z8 | z4!f! d4 | .A2 z!mf! A .B.B (B3/2A/4B/4) | %35
 .c.A z .c .d.d (d3/2c/4d/4) | .eE z .e .f.f (Tf3/2e/4f/4) | .^g.e a4 .g2 | %38
 .a2 z!f! A .B.B (TB3/2A/4B/4) | .c.A d4 .c2 | .d2 z .f .g.G (g2 | g2) f2- fg/f/ e/f/d/e/ | %42
 .c.A (a2- ad) g2- | g2 f2 e4 | d2 z .d c4 | B4 .A2 z .b | .^g.e .a4 .g2 | .a2 z2 z4 | z8 | z8 | %50
 z8 | z8 | z8 | z8 | z8 | z4 e4 | .A2 z2 a4 | .d2 z!mf! .d .e.e (Te3/2d/4e/4) | %58
 .f.F z .f .g.g (Tg3/2f/4g/4) | .a.A z .a .bb (Tb3/2a/4b/4) |!f! c'.a d'4 c'2- | c'2 (b4 ^a2) | %62
 b/f/=g/=a/ b/a/g/f/ g/f/e/d/ e/d/c/B/ |!p! .^A.F (f2- f.B) (e2- | ef).d.c d2 (c>B) | %65
 .B.f.d.B z .B =A2 | z .f (T^d3/2c/4d/4) e2 z .a | .f2 z .g .e2 z .f | .^d.B e4 .d2 | %69
!f! .e2 z2 z4 | %70
 !tenuto!e/!tenuto!B/!tenuto!e/!tenuto!g/ !tenuto!b/!tenuto!g/!tenuto!e/!tenuto!g/ f/B/^d/f/ b/a/g/f/ | %71
 .g.e z2 z4 | d/A/d/f/ a/f/d/f/ e/A/c/e/ a/g/f/e/ | .f.d z2 z4 | z8 | z8 | z2!f! f4 =e2- | %77
 e2 .d.c/.B/ .c.c (Tc3/2B/4c/4) | .^d.B e4 =d2- | d2 .c.B/.A/ .B.B (.TB3/2A/4B/4) | .c.A d4 c2 | %81
 .f2 z .f .g.G g2- | gf/e/ f/e/d/c/ .B.B.ed | .c2 z .c .B.B.B.B | A2 (d2- d/c/).d/.B/ (c>d) | %85
 d2 z .f e4 | d4 .c.A z2 | z4 a4 | .d2 z2 e4 | .A2 z2 a4 | .d2 z .d .e.e (Te3/2d/4e/4) | %91
 .f.d (g2- ga).f.e | f2 (e>d) .d.f (a2- | a.d) g2- g.a .f.e/.d/ | d2 c2 d2 z2 |] %95
[M:3/4] z2!mf! d2 (ed) |!>(! d6!>)! | z6 | %98
 z!mf! !tenuto!e!tenuto!d!>(!!tenuto!c!tenuto!B!tenuto!^A | B4!>)! z2 | z2!mf! g2 (ag) | %101
!>(! g6!>)! | z6 | z!mf! !tenuto!a!tenuto!g!>(!!tenuto!f!tenuto!e!tenuto!^d | e4!>)! z2 | %105
 z2!mf! f2 (gf) |!>(! f6!>)! | z6 | z!mf! !tenuto!g!>(!!tenuto!f!tenuto!e!tenuto!d!tenuto!c!>)! | %109
!p! .d2 d3 !tenuto!d | (dc) c3 !tenuto!c | (cB) B3 !tenuto!e | (ed) d3 !tenuto!d | %113
 (dc)!<(! c3 !tenuto!f | (f^e) e2!<)! z2 | z2!f! a2 (ba) |!>(! a6!>)! | z6 | %118
 z!mf! !tenuto!b!tenuto!a!>(!!tenuto!^g!tenuto!f!tenuto!^e!>)! | %119
 !tenuto!f!tenuto!^g !tenuto!f2 !tenuto!^e2 |!p! !tenuto!f2 z2 z2 | z6 | z6 | z6 | %124
 z!p! a(af)(e>d) | (ea)(ae)(d>c) | (da)(ad)(c>B) | (c>B) A2 z2 | %128
 z!p! !tenuto!a!<(!!tenuto!f(!tenuto!de!tenuto!f) | g6-!<)! |!mf! g3 !tenuto!a f2- | %131
 f!tenuto!g (e3 d) |!p! d2 z2 z2 | z6 | z2 c3 c | d2 T^d3 !tenuto!c/!tenuto!d/ | e2 ^e3 !tenuto!e | %137
 f2 (f=e)!tenuto!d!tenuto!c |!mf! !tenuto!B(Eed)c!tenuto!B | !tenuto!c(gfe)!tenuto!d!tenuto!c | %140
!f! d2 ^d3- !tenuto!d | (e=d)(dc)(B>c) | ^A4 z2 | z2!mf! d2 (ed) | d6 | z6 | %146
 z!mf! !tenuto!e!tenuto!d!tenuto!c!tenuto!B!tenuto!^A | (Bc) B2 (^A>B) | B2 !fermata!d2 z!p! c | %149
 B6 | ^A6 |][M:4/4] z2 z!mf! .A .d.d.d.d | (BA).F.A (BA).F.A | .B.c.d.F .G.A.A.B | .Bc.d.A B3 .B | %155
 (A/^G/).A/.B/ .c.d .c.A/.B/ .c.d | .c/.B/.A/.B/ .c.d (Tdc) z2 | z2 z .A (TAG) z2 | %158
 z2 z B TBA z c | .d.d.d.d (Tdc) z!pp! .c | .d.d.d.d (Tdc) z2 | z4 z2 z/!f! .F/.G/.A/ | %162
 .B/.c/.d/.c/ .B.e c2 (.d.e) | .A.BE.A .F2 z!mf! (f/(g/) | .a).d.d.d (Ted).d.d | %165
 (Ted).d.d (g/>a/b) a2 | z .e.f.d (e/>f/g) f2- | f.g/.f/ .e.d .c/.B/.c/.d/ .e.f |!f! .e.A z4 z2 | %169
 z8 | z8 | z8 | z8 | z8 | z8 | z4 z2 z!f! (c'/d'/) | e'.a.a.a (Tba) z .e | (fe)(.c.e) (Td2 c2) | %178
 z .F.B.A ^G2 z .B | .^G2 z .G .c(A/>G/ .A).A | .c(A/>^G/) .A.A (TAG) z!p! .^g | %181
 .a.a.a.a (Ta^g) z!pp! .^G | .A.A.A.A (A^G) z2 | z!mf! (cB^G) z .c.ec | .A(fdB) z (^gec) | %185
 z!f! .a.f.b e3 .^g | .a.f.e.d c2 z2 | z!p! (cBA) z (cBA) | z (cBA)!f! .^G.A z2 | %189
 z!p! (BA=G) z (BAG) | z (BAG)!f! .F.G z2 | z!p! (AGF) z (AGF) |!mf! (Bcd>e) c2 z!p! .c | %193
 .d.d.d.d (Tdc) z!pp! .c | .d.d.d.d (Tdc) z!f! .c | .c.c.c.B ^A3 A | %196
 B3 ^A!f! !tenuto!B/!tenuto!F/!tenuto!B/!tenuto!d/ !tenuto!B/!tenuto!d/!tenuto!c/!tenuto!B/ | %197
 c/F/c/e/ c/e/d/c/ .d.B!mf! B2- | B2 ^A2 B2 z2 | z8 | z8 | z8 | z8 | z8 | z8 | %205
 z4 z2 z!f! ((e/f/)) | .g.e.e.e (T=fe) z .B | (=cB) z .e ^d2 e2 | z2 z .f .^d.B (e2 | %209
 e2) (T^d>e) !tenuto!e/B/!tenuto!e/!tenuto!g/ !tenuto!e/!tenuto!g/!tenuto!f/!tenuto!e/ | %210
 f/B/f/a/ f/a/g/f/ .g.e z2 | z8 | z4!f! d/A/d/f/ d/f/e/d/ | e/A/e/g/ e/g/f/e/ .f.d z2 | z8 | z8 | %216
 z8 | z4 z2 z!f! (d/e/) | .f!mf!.d.d.A (!>!BA).F.A | (BA).F.A .B.cd.F | .G.A.A.B .B.cd.A | %221
 B3 .B (A/^G/).A/.B/ .c.d | c.A/.B/ .cd .c/.B/.A/.B/ .c.d | (!>!Tdc) z4 z .A | (TAG) z2 z2 z .B | %225
 (TBA) z!p! .c .d.d.d.d | (Tdc) z!pp! .c .d.d.d.d | (Tdc) z4 z/!f! .A/.B/.=c/ | %228
 .B/^c/.d/.e/ .f.d B3 .e | c2 (.d.e) .A.B.A.G | .F2 z f .d.B g2- | g2 (.f.e) d2 (Tc>d) | %232
 !fermata!d6 z2 |] %233
V:3
 DEFG FDFG | FDB,C DF,G,E, | F,B,E,A, D,E,F,G, | F,D,F,G, F,D,B,C | DF,G,E, F,B,E,A, | %5
 D,2 z D CC,F,F,, | B,,B,E,E,, A,,CDD, | G,B,ED CA,DD, | E,B,CA, D,E,F,G, | A,A,,C,A,, D,F,B,,D, | %10
 E,C,F,D, E,D,E,E,, | A,,A,CD CA,CD | CA,CE DF,E,D, | A,F,G,E, F,D,F,G, | F,D,F,G, F,D,F,B, | %15
!mf! A,G,F,E, D,A,B,A, | G,F,E,D, A,2 z!p! D, | G,2 z E, A,2 z F, | B,2 z E A,D,B,C | %19
 DB,EG, A,D,A,A,, |!mf! D,DFG FD,F,G, | D,F,G,E, D,B,E,A, | D,B,E,A, D,DCF | B,EA,A,,-!p! A,,4- | %24
 A,,8- | A,,G,F,F,, G,,G,A,A,, | B,,B,/A,/ B,G, A,D,A,A,, | D,2 z C B,4 | A,8 |] %29
[M:4/4]!f! .D,(DC).A, (B,A,/G,/ (F,)!mf!B,) | .G,.E,.A,.A,, .D,.F,.A,.D | .E,.G,.CE .F,.A,.DF | %32
 .G,.B,.E.G .A,.GF.D | E.G,.A,.C!f! .D.D,.F,.G, |!>(! .A,.CF!>)!!mf!.C .D.B,E.E, | %35
 .A,.CE.A, .D,.D.B,.B,, | .E,E.C.A, (DCB,D) | .E,E.F.C .D.B,.E,E | .C.A, z2 z4 | z4 [A,,A,]4 | %40
 [D,,D,]2 z!mf! .D, E,.E, (TE,3/2D,/4E,/4) | .F,F,, z .F, .G,.G, (G,3/2F,/4G,/4) | %42
 .A,.A,, z .A, .B,.B, (B,3/2A,/4B,/4) |!f! .C.A,.D.F, .G,.E,.A,,.A, | .F,.D, z!mf! .G .E.C.F,F | %45
 .D.B, z F .C.A, D2- | D2 .CF .D.B,E.E, |!f! .A,.A,, z!mf! (A, B,).B,, z (B, | CB,CA, D).D,.D.B, | %49
 .C.B,.C.F, .B,.A,.G,.E, | .A,.G,.F,.D, .G,.E,.A,.F, | (.B,E.C).A, .D.B,E.C | %52
!f! .F.D.F,.D, .G,.B,.G,.E, | .A,.C.A,.F, .B,.G.A,.F | .G, EF,D E,CD,B, | %55
 A,/B,/G,/A,/ F,/B,/A,/B,/ .G,.E,.A,.A,, | .D,.B,.E.D .C.D.A,.C, | %57
!mf! .D,.F, B,/A,/G,/F,/ G,/E,/F,/G,/ A,/G,/F,/E,/ | .D,.F,.A,.D EE TE3/2D/4E/4 | %59
 F.F, z .F .G.G, z .E |!f! .A.A, B,/A,/G,/F,/ G,/E,/F,/G,/ A,/G,/F,/E,/ | %61
 .F,.D, G,/F,/E,/D,/ E,/C,/D,/E,/ F,/E,/D,/C,/ | .D,.B,, z D, E,F,G,.E, |!p! .F,F,, z2 z4 | %64
 z4 [F,,F,]4 | [B,,,B,,]2 z B, .C.C TC3/2B,/4C/4 | ^D.B, z .B, E/=D/=C/B,/ A,/B,/C/A,/ | %67
 D/=C/B,/A,/ G,/A,/B,/G,/ C/B,/A,/G,/ F,/G,/A,/F,/ | .B,.G,.=C.A, .B,.A,.B,.B,, | %69
!f! E,2 z .E .^D.B, z .D | E.E, z E .^D.B, z .D | E.E, z .G, .A,.A,,.C.A, | %72
 .D.D, z .F, .A,.A,, z .C | .D.D,.D.C .B,.^G, z .B, | .C.C,.C.B, .A,.F, z .F | %75
 ^E.C z .B,!f! A,/F,/^G,/A,/ B,/C/^D/E/ | F/=E/=D/C/ D/C/B,/A,/ B,^G,CC, | F,FGD ECFF, | %78
 B,,B,=CG, A,F,B,B,, | E,EFC DB,EE, | A,.A,, z2 A4 | .D2 z!mf! .D EE (TE3/2D/4E/4) | %82
 F.F, z F .G.G TG3/2F/4G/4 | .A.A, z A, G,G, G,A,/G,/ | F,F,, z F, E,E, E,F,/E,/ | %85
 .D,D,, z!mf! .D C/D/E/C/ F/E/D/C/ | B,/C/D/B,/ E/D/C/B,/ A,/B,/C/A,/ D/C/B,/A,/ | %87
 .G,.B,.G,.E,!f! .A,.A,,.A,.G, | .F,.D,.D.D, .A,.A,,.A,.G, | .F,D,F,.G, .A,2 z .A, | %90
 .B,.B, TB,3/2A,/4B,/4 .C.A, z .C | .D.B,E.E, .A,.F,.B,.G, | .A,.G,.A,.A,, .D,.A,.DF, | %93
 G,B,EE, A,F,B,G, | A,2 A,,2 D,2 z2 |][M:3/4]!p! B,2 B,,4 | z F,B,CDC | B,^A,B,=A,G,F, | %98
 E,2!p! F,2 F,,2 | B,,2 B, A, G, z |!p! E,2 E,,4 | z B,EFGF | E^DE=D=CB, | A,2!p! B,2 B,,2 | %104
 E,2 (ED ^CB,/A,/) |!p! D2 D,4 | z (A,DEFE | DCDCB,A,) | G,2!p! A,2 A,,2 | D,A,,!p!(D,E,F,G, | %110
 A,).A,,(A,B,CD | E).B,(E,F,G,A, | B,).B,,(B,CDE | F.CF,^G,A,B, | C).C,(CB,A,^G,) | %115
!mf!!>(! F,2 F,,4 | z!>)!!p! (CF^GAG | F^EF=EDC) | B,2 C2 C,2 | F,B,, C,2 C,2 | %120
!p! F,2 z2 !tenuto!D,2 | !tenuto!C,2 z2 !tenuto!C,2 | !tenuto!B,,2 z2 !tenuto!B,,2 | %123
 !tenuto!A,,2 z2 z2 | !tenuto!D,2 z2 !tenuto!D,2 | !tenuto!C,2 z2 !tenuto!C,2 | %126
 !tenuto!B,,2 z2 !tenuto!B,,2 |!p! !tenuto!A,,2 A,2 G,2 | F,2 B,2 B,,2 | E,2 G,2 E,2 | %130
 A,2 F,2!mf! B,2 | G,2 A,2 A,,2 |!p! D,D(DCB,A, | B,)E,(EDCB, | C)F,(FEDC | B,2) B,,3 B,, | %136
 E,2 C,3 C, | F,2 F,3 F, | G,2 ^G,3 F,/G,/ | A,2 ^A,3 A, |!f! B,2 B,,3 B,, | E,2 E,,3 E, | %142
 F,F,,F,E,D,C, |!p! B,,2 B,,4 | z F,B,CDC | B,^A,B,=A,G,F, | B,2!p! F,4 | B,E, F,2 F,2 | %148
 B,,2 !fermata!B,2 z!p! A, | G,6 | F,6 |][M:4/4]!mf!!mf! D,2 z D/E/ FE.F.D | GF.DF GF.D.F | %153
 GE.F.D ECD.B, | E.A,.D.F, G,A,B,G, | A,2 .A,,.D, !tenuto!A,2 .A,,.D, | %156
 !tenuto!A,2 .A,,.D, .A,.A,,.A,.G, | .F,.A,.D.F, .G,.B,.D.G, | .^G,.B,E.G, .A,.CE!p!.A, | %159
 .D=F.A.D .A,.CE!pp!A | .D=FA.D .A,.CE!f!.G, | .F,.A,.D.F, G,/A,/B,/C/ .DD, | %162
 .G,.B,E.G, .A,.G,.F,.E, | .D,.G,.A,.A,,!>(! D,/D/C/B,/ A,/!>)!G,/!mf!F,/E,/ | .D,FF.D GF.DF | %165
 GF.DF GEF.D | E.C.D.B, E.A,.D.F, | G,A,B,G, .A,.B,.C.D |!f! .A,2 z!mf! .C .DD,F,G, | %169
 .A,2 z .C .D.D, z .D | .C.C, z .C .D.B,.E,.G, | .A,.A,,.B,,.B, .C.A,.F,.A, | .D.D,E.E, F.D.B,.D | %173
 .G,E.A,G .F.D.D,.C | B,CD.B, E.E,E.D | .C.A,.C,.A,, .E,2 z!f! A,/B,/ | CB,.C.A, DC.A,.C | %177
 DC.A,.C .D.D,.A,.C | B,A,^G,F, E,.B,.G,.B, | .E,.B,.^G,.B, .E,E.C.A, | .E,E.C.A, .E,E.^G,.E, | %181
 .A,.=CE.A, .E,.B,E.E, | .A,.=CE.A, .E,.B,E.^G, | .A,.A,,.^G,.E, .A,,.A,C.A, | %184
 .D.D, z .D E.E, z E | .F.F, z .B, .^G,.B,.E,E | .A,.DE.E, A,/B,/C/B,/ A,/B,/A,/^G,/ | %187
 .F,A,^G,F, z A,G,F, | z A,^G,F, .^E,.F, z2 | z!p! GFE z GFE | z GFE!f! .^D.E z2 | z!p! FED z FED | %192
!mf! E.A,.D.G, .A,.CE!p!!p!.A | .D=FA.D .A,.CE!pp!.A | .D=FA.D .A,EA.A, | .G,.CE.G, .F,.C.^A,.F, | %196
 .B,.E,.F,F,, .B,,2 z!mf! .B, | .^A,.^G,.A,.F, .B,.B,,.D,.B,, | .E,.C,.F,.F,, .B,,.B,.D.B, | %199
 (EDCA, D).D,.B,.B,, | .C.C,.^A,.F, .B,,.C,.D,.E, | (F,^G,^A,F, B,C^DB,) | EE,.B,E .^D.B,.B,,.D | %203
 E.E,.G,.E, (A,B,=CA,) | .D.D,.F,.D, (G,A,B,G,) | .=CE.C.A, .B,.A,.G,.F, | %206
 .E,(G,/F,/) .G,.E, (A,G,).E,.G, | (A,G,).E,.G, .F,.FG.G, | .=C(C/B,/) .C.A, .B,.G,.C.A, | %209
 .B,.A,.B,.B,, .E,2!mf! E2- | E2 ^D2 E.B,.=C.G, | .A,.F,.B,.B,, .E,.F,.G,.E, | %212
 .A,.B,.C.A, .D.A,.B,.F, | .G,.E,.A,.A,, .D.D,.F,.B, | .G,.E,.A,.A,, .D,.F.D.B, | %215
 .CE.F.A, .B,.DE.G, | .A,.A,,.A,.F, .B,.B,,.B,.D | .C.A,.CE DC/B,/ A,/G,/F,/E,/ | %218
 .D,!mf!.F.F.F (GF).D.F | (GF)(DF) GEF.D | E(CD).B, E.A,.D.F, | (G,A,B,G,) A,2 .A,,.D, | %222
 !tenuto!A,2 .A,,.D, !tenuto!A,2 .A,,.D, | .A,.A,,A,.G, .F,.A,.D.F, | G,.B,.D.B, .^G,.B,E.B, | %225
 .A,.CE!p!.A,!p! .D=FA.D | .A,.CE!pp!A .D=FA.D | .A,.C!f!E.G, .F,.A,.D.F, | %228
 G,/A,/B,/C/ .D.F, .G,B,.E,.G, | .A,.G,.F,.G, .A,.G,.A,.A,, | D,E,F,D, G,B,E,G, | %231
 A,,A,B,(G, A,)G,A,A,, | !fermata!D,6 z2 |] %233
V:4
 (d4- df d2- | d3) (A A[Ad]BA | AGB[GA]) FGAB | AFAB A (d2 A- | A[Ad]BA- A [Dd]2 [Gc]) | %5
 [Fd]2 z (B- B/^G/A/B/ A2- | A/F/^G/A/ B2 c) z z A | B3 e- ec f2- | fe- e2- [eg] [df]2 e/d/ | %9
 dc e4 d2- | decB c2 B/c/d/e/ | c A3- Ac A2- | Acec d A3 | (AdB.c d3 B | AFAB A d3) | (cBAG FEDF | %16
 Bdef) e2 z [FAd] | [DB]2 z [GBe] [Ec]2 z [Acf] | [Fd]2 z [GBg] ([ce]fg[Ae] | fd B2 c d2 c) | %20
 (d4- df d2- | d3 c d3 c) | (f2 g2 f2 e2 | d2 cd A) A3 | A6 A z | z2 A2 BA/G/ F2 | G>F GB A2 dc | %27
 d2 z [EAe] d4 | [Ac]8 |][M:4/4] z (fe).c d3 d | [EBd] z [EAc] z (d2 f)(d- | dc e2- ed f2- | %32
 fege- e2 d).f | (BdcA) .A z d z | [Ac]2 z .A [ABf] z .[^GBe] z | [Ec] z z2 .[FAd] z .[FBd] z | %36
 .[^GB] z (e2 fedB) | ^g2- ae [Bf]2 g2 | [cea]2 z6 | z2 z E .=G.G (TG3/2F/4G/4) | .F2 z d- dBc(e | %41
 e)cdf- fdeg- | ge.f.e d2 [de]2 | [Ae]2 z2 [de]2 [ce]2 | d2 z (.d c e2 c | B d2 B A c2 A | %46
 B e2 c Bfed | c2) A4 A2 | A6 (BA) | A(dec dfeg | cedf B2 c2 | dB A[cg] fe/d/ gf/e/) | %52
 a2 (d2- d2 e2- | e2 f2 d4 | [Be]2 [Af]2) [Ag]2 [Af]2 | e2 z2 e4 | .f.d g2- gfe.g | %57
 [df]2 z .[Bd] .[Bde] z .[Ace] z | .[Fdf].[Ad] z d- [G-d]2 [Gc] z | [A-e]2 [Ad] z [B-f]2 [Be] z | %60
 .[cg] z .[df] z .[deb] z .[cea] z | .[cda] z .[Bdg] z .[Bcg] z .[^Acf] z | .[Bdf]2 z B- B3 [Bc] | %63
 [F^Ac]2 z2 z4 | z2 z E EE TE3/2D/4E/4 | [DB]2 z B- B2 A2 | .A z z2"_CTBSC' ." (g4 | f4 e4) | %68
 ^d.B.e.f g z A z | .[GBe]2 z .[Bg] .[Bf].[^db] z .B | .[Bg].[GBe] z .G .F.[^DFB] z .B | %71
 .G.[GBe] z [EB] [EAc].[cea] z .c | .[Af].[FAd] z .[Ad] .[Ace].[cea] z .A | %73
 .[Af].[FAd] z .[Af] .[Bdf^g].[dfb] z .[^Gdf] | .[^Gc^e]2 z .[Gce] .[Acf].[cfa] z .[Ac] | %75
 c2 z/ ^e/f/^g/ [cfa]4 | .[Acf]2 f2 ^g4 | ^a2 b4 =a2 | a2 =g2 f4 | ^g2 a4 =g2- | g z z2 e2 e2 | %81
 f2 z2 .G2 z2 | ed z2 fe z2 | e2 z F B4 | A2 z A G4 | GF z B e z [ea] z | d z [d=g] z c A2 d | %87
 Bd.B.G [CEA]3 [EAc] | [FAd]3 .[Adf] [Ace]3 .[cea] | [da] d2 d c2 z2 | z .A [Ad]2 .[Ae].[Ac] z A | %91
 .A.d B2 c2 .d.[de] | [df]2 c2 d2 z [Ada] | .[Bdb].d ([Bdg-]2 [ceg])[Aca][Bdf][Bdeb] | %94
 [Adfa]2 [GAce]2 [FAd]2 z2 |][M:3/4] !tenuto![DFB]2 !tenuto![FBd]2 !tenuto![CE^A]2 | [DFB]4 z F- | %97
 F4 B=A | e z ^A2 Bc | B3 [^DB] B2 | e2 !tenuto![Beg]2 !tenuto![FA^d]2 | [GBe]4 z B- | B4 ed | %103
 a z ^d2 B2 | (B4 AB/c/) | !tenuto![FAd]2 !tenuto![Adf]2 c2 | [FAd]4 z A- | A4 dc | e z c2 A2 | %109
 A2 (FGAB | A2) (CDEF | E2) (GABc | B2) DEFG | F2 ABcd | c3 (^E[^DF][E^G]) | %115
 !tenuto![CFA]2 !tenuto![Acf]2 !tenuto![^GB^e]2 | [Acf]4 z (c | f^gagfa | ^g2) z2 c2 | cd c4 | %120
 c2 !tenuto![DFAd]3 z | z2 !tenuto![CEA]3 z | z2 ([B,DA]2 ^G2) | A2 (A3 G) | F2 [DFA]3 z | %125
 z2 !tenuto![CEA]3 z | z2 ([B,DA]2 ^G2) | A6 | A4 GA | G2 B2 G2- | G2 A2 F2 | B2 =G4 | F2 (F4 | %133
 G2) ^G4 | A2 ^A^GFE | F3 FBA | ^G3 GcB | ^A2 F3 E | D3 B,CD | C E2 =GFe | d2 ^d2 B2- | B6 | %142
 [F^A]3 [^A,FF][B,^G][EA] | !tenuto![DFB]2 !tenuto![FBd]2 !tenuto![CE^A]2 | [FB]3 FBc | %145
 dcd^d[ce][df] | [eg] z ^A2 F2- | FG z2 [EF]2 | B2 !fermata![Bdf]2 z [Cc] | B6 | ^A6 |] %151
[M:4/4] z ([DF]/[EG]/)[FA].A .A.G.A.F | BA.F.A BA.F.A | .B.[Gc].[Ad].[Af] B A2 d | BcAd d4 | %155
 c z .[GAe].[FAd] [EAc] z .[GAe].[FAd] | [EAc] z .[GAe].[FAd] [Fd][Ac] z2 | [DAd] z z [D-A] D2 z2 | %158
 [EBe] z2 [EB] E2 z z | z2 !tenuto![d=f]2 z ea=g | z2 !tenuto!=f2 z e a2 | %161
 .[Ada].^f.d.A B/c/d/e/ f2- | f.[Gdg].[GB][EBe] z [Ac][Bd][ce] | f e2 z d2 z d- | d z3 BAFA | %165
 BA.F.A .B.[Gc].[Ad].[Af] | B A2 d .B.c [Ad]2 | d4 c A2 .[Adf] | .[Ace]2 z .A .Ffde | %169
 c2 z .[EA] .[FA].[FAd] z .[Adf] | [Ae].[Aea] z .[Ae] .B.d.e.B | .[Ac] z .[^Gd] z [EAe] z .d.[ce] | %172
 [df] z .[=Gd] z .[Ad] z .[Bdg].[Adf] | e4 [df]2- [df].e | def.[da] [e^g]2 [Be]2 | %175
 ece[ea] [e^g]2 z A- | A8- | A4- A2 cE | dFBA ^G.G.B.G | B^GBG c z .A.c | [ce] z .A.c e z ed | %181
 =c z !tenuto![Ac]2 z2 !tenuto![^GB]2 | z2 !tenuto![=cea]2 z .[e^g].[gb].[EB=d] | ^c2 Bd c2 Ac | %184
 A2 B4 c2- | (c2 d4- d).d | c[df][ce].[d^g] [ca]2 c/d/c/B/ | .A c3 z c3 | %188
 z (c[B^e])[Af] .[Bc^g]2 z2 | z B3 z B3 | z B[A^d][Ge] .[ABf].[GBe] z2 | z A3 z A[Gc][Fd] | %192
 Bc d2 [EAc]2 z2 | z2 !tenuto![d=f]2 z ea=g | z2 !tenuto![d=f]2 z a.e z | [ce-]4 [ce]2 .c.e | %196
 (d2 c^A) .[DB]2 z (F- | F3 ^A B2 B2- | B2 ^A2 B2) (Bd) | (B e2 [eg] [df]2) [dg]2 | %200
 [Be]2 .[cf].[ce] .d.c B2 | (^ABcA ^dcBd) | (g2 eg f ^d2 f) | (g2 e6) | (f2 d6) | %205
 (e=cf).e ^d z z B | .G(B/A/) .B.G (=cB).G.B | (=cB).G.B (([A^d]2 [Be-]2) | e)(e/=d/ e2) ^d e3 | %209
 [Ge]2 [A^d]2 .[Ge]2 B2- | B6 e2- | e2 ^d2 e4 | (^cdec .f2) d2 | d2 c2 d2 d2- | d2 c2 d2 .B.d | %215
 [EAe].c.A.[Fcf] .[Fd].B.G[EBe] | c2- cA d2- dB | e2 ec fe/d/ c/B/A/G/ | .[FA].A.A.A (BA).F.A | %219
 (BA).F.A .B.[Gc].[Ad].[Af] | B- A2 d .B.c.A.d | d4 c z .[GAe].[FAd] | %222
 [EAc] z .[GAe].[FAd] [EAc] z .[GAe].[FAd] | ([Fd][Ac]) z2 [DAd] z z A | FGB z [EBe] z z (B | %225
 ^GAc) z z2 !tenuto![d=f]2 | z (ea=g) z2 [d=f]2 | z .e !tenuto![ca]2 .[Ada].^f .d>A | %228
 .B.G.F.[Ad] .B.d.ge | (c2 d).[de] .[Adf].[Bdg].[Adf][EAc] | .[FAd].A d4 .[eg].[Be] | %231
 [EGc]2 [DFd][Bde] [Adf]2 [GAce]2 | !fermata![FAd]6 z2 |] %233
V:5
 FGAB A3 B | AFGE F D2 G | D2 z C D4- | D4- DFGE | F D2 G DGBA | A2 x B E4- | D4 E(E .F2- | %7
 F) =G3 A3 B | G3 c A3 B | F/G/ A2 G FAFB- | B A2 F EF ^G2 | ECEF E3 F | E3 G [FA]AGF | %13
 [CE] D2 G AFAD- | D4- DF/G/AD- | D4- DEDF | D A3 c2 x2 | x8 | x4 AdGG | [FA]2 G2- GF G2 | %20
 F2 AB A3 B | FABG F G3 | F d2 c2 B2 A- | A =G2 F- F (CDC | A,CDE FEFD | A) x D6- | %26
 D3 D A2 [FA][GAc] | [FA]2 x2 [FA]2 [E^G]2 | E8 |][M:4/4] x A3 dc/B/ AF | x4 F A3 | A6- Ad | %32
 B3 d c2 dA | G4 F x [DA] x | E2 x6 | x8 | x2 A6 | [Bd]2 [A-c]2 Ad [Be]2 | x8 | x8 | x3 F G4 | %41
 A4 B4 | c2 AG (FA) G2 | G2 Ad BG A2 | A2 x B- B2 A2 | G2 G4 F2 | ^G2 A4 G2 | A2 x (C D2) z (D | %48
 EDEC F2) F2 | A4 dc B2 | (cB) A2 B G2 A | G2 A2 A4 | [Ad]2 AF B4 | c4 d2 c2 | d4 c2 d2 | %55
 [Ac]2 d4 c2 | A x2 B A2 c[Ae] | A2 x6 | x8 | x8 | x8 | x8 | x3 F GFEG | x8 | x8 | x3 .D E4 | %66
 .F x (B4 =c2- | c2 B4 A2) | FBA[A=c] [GB] x [^df] x | x8 | x8 | x8 | x8 | x8 | x8 | x8 | %76
 x2 f4 e2- | e2 d2 ce- e2 | ^d2 e2 =c2 =d2- | d2 ^c2 B2 =d2 | (cA) d4 c2 | A2 x d- dc x2 | %82
 A2 x2 B2 x2 | c2 x F- F2 E2 | ED x D- D2 C2 | D2 x B B x A x | A x =G x G A2 F | G x7 | x8 | %89
 .A FAB E2 x2 | x8 | AF G2 EAFB | A2 [GA]2 [FA]2 x2 | x8 | x8 |][M:3/4] x6 | x6 | BcdcB^d | %98
 G x ^A2 FE | [DF]3 x3 | x6 | x6 | efgfe^g | ^c x3 BA | G6 | x4 !tenuto!E2 | x6 | defedf | %108
 B x3 AG | F2 x4 | x6 | x6 | x6 | x6 | x3 C2 x | x6 | x6 | c4 fe | d2 (^e2 cB) | AF (A2 B2) | %120
 A2 x4 | x6 | x4 ED | C2 ([A,C][B,D][CE][A,C]) | D2 x4 | x6 | x4 ED | C3 CDE | F2 D4- | D4 E2- | %130
 E4 D2- | D2 x4 | x2 ^GFED | D2 ^GFED | E2 x4 | x6 | x6 | x6 | x6 | x4 F2- | F=A=GFBA | G6 | x5 F | %143
 x6 | x3 F3- | F3 B2 A | G x3 FE | D x F2 ^A2 | [DF]2 x4 | D4 C2- | C6 |][M:4/4] x8 | x8 | %153
 x4 GGFF | GE A2 BAGB | A x7 | x8 | x4 FGB x | z4 GAc z | x5 e c2 | x2 d2 x2 !tenuto!c2 | x8 | %162
 x5 A2 A | .[Ad](([Bd].[Ac])).G F2 x (A/G/) | (FA).A.F x4 | x8 | GGFF GEFD | BAGB .A x3 | %168
 x4 F A2 B | E2 x6 | x4 F x [GB] x | x6 A2 | A x7 | [Bd]2 [A-c]2 A4 | B3 A B2 ^G2 | %175
 A3 c B2 x c/d/ | ed.e.c fece | fe.c.e f2 e.A | D4- D E2 E | D E2 E E x E2- | E x E2- E x (B2 | %181
 A) x7 | x8 | E8 | F4 ^G4 | A3 F E^GBG | A A2 B A2 x2 | x cBA x cBA | x8 | x BA=G x BAG | x8 | %191
 x AGF x4 | G2 [FA][EB] x4 | x5 e c2 | x5 cc x | (c3 B ^A2) F2 | (FG E2) x3 D | E4 D2 FD | %198
 CE E2 D2 F2 | G2 A4 G2 | G2 F^A FE .D.G | F6- F=A | G3 B- B4 | G2 .B.G (=cBAc) | F2 .A.F (BAGB) | %205
 A3 .=c .B x3 | x8 | x8 | A3 .=c .B.B.Ac | x6 G2- | F3 A G2 G2 | F3 A GABG | A6 F2 | E3 G F2 F2 | %214
 E3 G F2 F2 | x8 | EF/G/ F2- FG/A/ G2 | GA/B/ A2- A x3 | x8 | x8 | G(GF)F GE A2 | (BAGB) A x3 | %222
 x8 | x8 | z/ x13/2 (E | E2) x6 | x e c2 x4 | x8 | x4 B G2 B | G A2 B x4 | x3 F BGBG | x8 | x8 |] %233
V:6
 DEFG FDFG | FDB,C DF,G,E, | F,B,E,A, D,E,F,G, | F,D,F,G, F,D,B,C | DF,G,E, F,B,E,A, | %5
 D,2 z D CC,F,F,, | B,,B,E,E,, A,,CDD, | G,B,ED CA,DD, | E,B,CA, D,E,F,G, | A,A,,C,A,, D,F,B,,D, | %10
 E,C,F,D, E,D,E,E,, | A,,A,CD CA,CD | CA,CE DF,E,D, | A,F,G,E, F,D,F,G, | F,D,F,G, F,D,F,B, | %15
 A,G,F,E, D,A,B,A, | G,F,E,D, A,2 z D, | G,2 z E, A,2 z F, | B,2 z E A,D,B,C | DB,EG, A,D,A,A,, | %20
 D,DFG FD,F,G, | D,F,G,E, D,B,E,A, | D,B,E,A, D,DCF | B,EA,A,,- A,,4 | A,,8 | %25
 [A,,,A,,]G,F,F,, G,,G,A,A,, | B,,B,/A,/ B,G, A,D,A,A,, | D,2 z C B,4 | A,8 |] %29
[M:4/4] .D,(DC).A, (B,A,/G,/ (F,)B,) | .G,.E,.A,.A,, .D,.F,.A,.D | .E,.G,.CE .F,.A,.DF | %32
 .G,.B,.E.G .A,.GF.D | E.G,.A,.C .D.D,.F,.G, | .A,.CF.C .D.B,E.E, | .A,.CE.A, .D,.D.B,.B,, | %36
 .E,E.C.A, (DCB,D) | .E,E.F.C .D.B,.E,E | .C.A, z2 z4 | z4 [A,,A,]4 | %40
 [D,,D,]2 z .D, E,.E, (TE,3/2D,/4E,/4) | .F,F,, z .F, .G,.G, (TG,3/2F,/4G,/4) | %42
 .A,.A,, z .A, .B,.B, (TB,3/2A,/4B,/4) | .C.A,.D.F, .G,.E,.A,,.A, | .F,.D, z .G .E.C.F,F | %45
 .D.B, z F .C.A, D2- | D2 .CF .D.B,E.E, | .A,.A,, z (A, B,).B,, z (B, | CB,CA, D).D,.D.B, | %49
 .C.B,.C.F, .B,.A,.G,.E, | .A,.G,.F,.D, .G,.E,.A,.F, | (.B,E.C).A, .D.B,E.C | %52
 .F.D.F,.D, .G,.B,.G,.E, | .A,.C.A,.F, .B,.G.A,.F | .G, EF,D E,CD,B, | %55
 A,/B,/G,/A,/ F,/B,/A,/B,/ .G,.E,.A,.A,, | .D,.B,.E.D .C.D.A,.C, | %57
 .D,.F, B,/A,/G,/F,/ G,/E,/F,/G,/ A,/G,/F,/E,/ | .D,.F,.A,.D EE TE3/2D/4E/4 | %59
 F.F, z .F .G.G, z .E | .A.A, B,/A,/G,/F,/ G,/E,/F,/G,/ A,/G,/F,/E,/ | %61
 .F,.D, G,/F,/E,/D,/ E,/C,/D,/E,/ F,/E,/D,/C,/ | .D,.B,, z D, E,F,G,.E, | .F,F,, z2 z4 | %64
 z4 [F,,F,]4 | [B,,,B,,]2 z B, .C.C TC3/2B,/4C/4 | ^D.B, z .B, E/=D/=C/B,/ A,/B,/C/A,/ | %67
 D/=C/B,/A,/ G,/A,/B,/G,/ C/B,/A,/G,/ F,/G,/A,/F,/ | .B,.G,.=C.A, .B,.A,.B,.B,, | %69
 [E,,E,]2 z .E .^D.B, z .D | E.E, z E .^D.B, z .D | E.E, z .G, .A,.A,,.C.A, | %72
 .D.D, z .F, .A,.A,, z .C | .D.D,.D.C .B,.^G, z .B, | .C.C,.C.B, .A,.F, z .F | %75
 ^E.C z .B, A,/F,/^G,/A,/ B,/C/^D/E/ | F/=E/=D/C/ D/C/B,/A,/ B,^G,CC, | F,FGD ECFF, | %78
 B,,B,=CG, A,F,B,B,, | E,EFC DB,EE, | A,.A,, z2 A4 | .D2 z .D EE (TE3/2D/4E/4) | %82
 F.F, z F .G.G TG3/2F/4G/4 | .A.A, z!f! A, G,G, G,A,/G,/ | F,F,, z F, E,E, E,F,/E,/ | %85
 .D,D,, z .D C/D/E/C/ F/E/D/C/ | B,/C/D/B,/ E/D/C/B,/ A,/B,/C/A,/ D/C/B,/A,/ | %87
 .G,.B,.G,.E,!f! .A,.A,,.A,.G, | .F,.D,.D.D, .A,.A,,.A,.G, | .F,D,F,.G, .A,2 z .A, | %90
 .B,.B, TB,3/2A,/4B,/4 .C.A, z .C | .D.B,E.E, .A,.F,.B,.G, | .A,.G,.A,.A,, .D,.A,.D[F,,F,] | %93
 [G,,G,][B,,B,][E,E][E,,E,] [A,,A,][F,,F,][B,,B,][G,,G,] | [A,,A,]2 [A,,,A,,]2 [D,,D,]2 z2 |] %95
[M:3/4] [B,,B,]2 [B,,,B,,]4 | z F,B,CDC | B,^A,B,=A,G,F, | E,2 F,2 F,,2 | B,,2 B, A, G, z | %100
 E,2 E,,4 | z B,EFGF | E^DE=D=CB, | A,2 B,2 B,,2 | E,2 (ED ^CB,/A,/) | [D,D]2 [D,,D,]4 | %106
 z (A,DEFE | DCDCB,A,) | G,2 A,2 A,,2 | D,A,,(D,E,F,G, | A,).A,,(A,B,CD | E).B,(E,F,G,A, | %112
 B,).B,,(B,CDE | F.CF,^G,A,B, | C).C,(CB,A,^G,) | F,2 F,,4 | z (CF^GAG | F^EF=EDC) | B,2 C2 C,2 | %119
 F,B,, C,2 [C,,C,]2 | [F,,F,]2 z2 !tenuto![D,,D,]2 | !tenuto![C,,C,]2 z2 !tenuto![C,,C,]2 | %122
 !tenuto![B,,,B,,]2 z2 !tenuto![B,,,B,,]2 | !tenuto![A,,,A,,]2 z2 z2 | %124
 !tenuto![D,,D,]2 z2 !tenuto![D,,D,]2 | !tenuto![C,,C,]2 z2 !tenuto![C,,C,]2 | %126
 !tenuto![B,,,B,,]2 z2 !tenuto![B,,,B,,]2 | !tenuto![A,,,A,,]2 [A,,A,]2 [G,,G,]2 | %128
 [F,,F,]2 [B,,B,]2 [B,,,B,,]2 | [E,,E,]2 [G,,G,]2 [E,,E,]2 | [A,,A,]2 [F,,F,]2 [B,,B,]2 | %131
 [G,,G,]2 [A,,A,]2 [A,,,A,,]2 | [D,,D,]D(DCB,A, | B,)E,(EDCB, | C)F,(FEDC | %135
 B,2) [B,,,B,,]3 [B,,,B,,] | [E,,E,]2 [C,,C,]3 [C,,C,] | [F,,F,]2 [F,,F,]3 [F,,F,] | %138
 [G,,G,]2 [^G,,^G,]3 [F,,F,]/[G,,G,]/ | [A,,A,]2 [^A,,^A,]3 [A,,A,] | [B,,B,]2 [B,,,B,,]3 B,, | %141
 E,2 E,,3 E, | F,F,,F,E,D,C, | B,,2 [B,,,B,,]4 | z (F,B,CDC | B,^A,B,=A,G,F,) | [E,B,]2 F,4 | %147
 B,4 [F,,F,]2 | [B,,,B,,]2 !fermata![B,DF]2 z [A,,A,] | [G,,G,]6 | [F,,F,]6 |] %151
[M:4/4] [D,,D,]2 z D/E/ FE.F.D | GF.DF GF.D.F | GE.F.D ECD.B, | E.A,.D.F, G,A,B,G, | %155
 A,2 .A,,.D, !tenuto!A,2 .A,,.D, | !tenuto!A,2 .A,,.D, .A,.A,,.A,.G, | .F,.A,.D.F, .G,.B,.D.G, | %158
 .^G,.B,E.G, .A,.CE.A, | .D=F.A.D .A,.CEA | .D=FA.D .A,.CE.G, | .F,.A,.D.F, G,/A,/B,/C/ .DD, | %162
 .G,.B,E.G, .A,.G,.F,.E, | .D,.G,.A,.A,,!>(! (D,/D/C/B,/ A,/G,/F,/!>)!E,/) | .D,FF.D GF.DF | %165
 GF.DF GEF.D | E.C.D.B, E.A,.D.F, | G,A,B,G, .A,.B,.C.D | .A,2 z .C .DD,F,G, | %169
 .A,2 z .C .D.D, z .D | .C.C, z .C .D.B,.E,.G, | .A,.A,,.B,,.B, .C.A,.F,.A, | .D.D,E.E, F.D.B,.D | %173
 .G,E.A,G .F.D.D,.C | B,CD.B, E.E,E.D | .C.A,.C,.A,, .E,2 z A,/B,/ | CB,.C.A, DC.A,.C | %177
 DC.A,.C .D.D,.A,.C | B,A,^G,F, E,.B,.G,.B, | .E,.B,.^G,.B, .E,E.C.A, | .E,E.C.A, .E,E.^G,.E, | %181
 .A,.=CE.A, .E,.B,E.E, | .A,.=CE.A, .E,.B,E.^G, | .A,.A,,.^G,.E, .A,,.A,C.A, | %184
 .D.D, z .D E.E, z E | .F.F, z .B, .^G,.B,.E,E | .A,.DE.E, A,/B,/C/B,/ A,/B,/A,/^G,/ | %187
 .F,A,^G,F, z A,G,F, | z A,^G,F, .^E,.F, z2 | z GFE z GFE | z GFE .^D.E z2 | z FED z FED | %192
 E.A,.D.G, .A,.CE.A | .D=FA.D .A,.CE.A | .D=FA.D .A,EA.A, | .G,.CE.G, .F,.C.^A,.F, | %196
 .B,.E,.F,F,, .B,,2 z .B, | .^A,.^G,.A,.F, .B,.B,,.D,.B,, | .E,.C,.F,.F,, .B,,.B,.D.B, | %199
 (EDCA, D).D,.B,.B,, | .C.C,.^A,.F, .B,,.C,.D,.E, | (F,^G,^A,F, B,C^DB,) | EE,.B,E .^D.B,.B,,.D | %203
 E.E,.G,.E, (A,B,=CA,) | .D.D,.F,.D, (G,A,B,G,) | .=CE.C.A, .B,.A,.G,.F, | %206
 .E,(G,/F,/) .G,.E, (A,G,).E,.G, | (A,G,).E,.G, .F,.FG.G, | .=C(C/B,/) .C.A, .B,.G,.C.A, | %209
 .B,.A,.B,.B,, .E,2 E2- | E2 ^D2 E.B,.=C.G, | .A,.F,.B,.B,, .E,.F,.G,.E, | %212
 .A,.B,.C.A, .D.A,.B,.F, | .G,.E,.A,.A,, .D.D,.F,.B, | .G,.E,.A,.A,, .D,.F.D.B, | %215
 .CE.F.A, .B,.DE.G, | .A,.A,,.A,.F, .B,.B,,.B,.D | .C.A,.CE DC/B,/ A,/G,/F,/E,/ | %218
 .D,.F.F.F (GF).D.F | (GF)(DF) GEF.D | E(CD).B, E.A,.D.F, | (G,A,B,G,) A,2 .A,,.D, | %222
 !tenuto!A,2 .A,,.D, !tenuto!A,2 .A,,.D, | .A,.A,,A,.G, .F,.A,.D.F, | G,.B,.D.B, .^G,.B,E.B, | %225
 .A,.CE.A, .D=FA.D | .A,.CEA .D=FA.D | .A,.CE.G, .F,.A,.D.F, | G,/A,/B,/C/ .D.F, .G,B,.E,.G, | %229
 .A,.G,.F,.G, .A,.G,.A,.A,, | [D,,D,][E,,E,][F,,F,][D,,D,] [G,,G,][B,,B,][E,,E,][G,,G,] | %231
 [A,,,A,,][A,,A,][B,,B,]([G,,G,] [A,,A,])[G,,G,][A,,A,][A,,,A,,] | !fermata![D,,D,]6 z2 |] %233
V:7
 x8 | x8 | x4 d x3 | x8 | x8 | x8 | x8 | x8 | x8 | x8 | x8 | x8 | x7 A | x8 | x8 | x8 | x8 | x8 | %18
 x8 | x8 | x8 | x8 | x8 | x8 | x8 | x8 | x8 | x8 | x8 |][M:4/4] x8 | x8 | x8 | x8 | x8 | x8 | x8 | %36
 x8 | x8 | x8 | x8 | x8 | x8 | x8 | x8 | x8 | x8 | x8 | x8 | x8 | x8 | x8 | x8 | x8 | x8 | x8 | %55
 x8 | x8 | x8 | x8 | x8 | x8 | x8 | x8 | x8 | x8 | x8 | x8 | x8 | x8 | x8 | x8 | x8 | x8 | x8 | %74
 x8 | x8 | x8 | x8 | x8 | x8 | x8 | x8 | x8 | x8 | x8 | x8 | x8 | x8 | x8 | x8 | x8 | x8 | x8 | %93
 x8 | x8 |][M:3/4] x6 | x6 | x6 | x6 | x6 | x6 | x6 | x6 | x6 | x6 | x6 | x6 | x6 | x6 | x6 | x6 | %111
 x6 | x6 | x6 | x6 | x6 | x6 | x6 | x6 | x6 | x6 | x6 | x6 | x6 | x6 | x6 | x6 | x6 | x6 | x6 | %130
 x6 | x6 | x6 | x6 | x6 | x6 | x6 | x6 | x6 | x6 | x6 | x6 | x6 | x6 | x6 | x6 | x6 | x6 | x6 | %149
 x6 | x6 |][M:4/4] x8 | x8 | x8 | x8 | x8 | x8 | x8 | x8 | x8 | x8 | x8 | x8 | x8 | x8 | x8 | x8 | %167
 x8 | x8 | x8 | x8 | x8 | x8 | x8 | x8 | x8 | x8 | x8 | x8 | x8 | x8 | x8 | x8 | x8 | x8 | x8 | %186
 x8 | x8 | x8 | x8 | x8 | x8 | x8 | x8 | x8 | x8 | x8 | x8 | x8 | x8 | x8 | x8 | x8 | x8 | x8 | %205
 x8 | x8 | x8 | x8 | x8 | x8 | x8 | x8 | x8 | x8 | x8 | x8 | x8 | x8 | x8 | x8 | x8 | x8 | x8 | %224
 x8 | x8 | x8 | x8 | x8 | x8 | x8 | x8 | x8 |] %233
V:8
 x8 | x8 | x8 | x8 | x8 | x8 | x8 | x8 | x8 | x8 | x8 | x8 | x8 | x8 | x8 | x8 | x8 | x8 | x8 | %19
 x8 | x8 | x8 | x8 | x4 A,,,4 | A,,,8- | x8 | x8 | x8 | x8 |][M:4/4] x8 | x8 | x8 | x8 | x8 | x8 | %35
 x8 | x8 | x8 | x8 | x8 | x8 | x8 | x8 | x8 | x8 | x8 | x8 | x8 | x8 | x8 | x8 | x8 | x8 | x8 | %54
 x8 | x8 | x8 | x8 | x8 | x8 | x8 | x8 | x8 | x8 | x8 | x8 | x8 | x8 | x8 | x8 | x8 | x8 | x8 | %73
 x8 | x8 | x8 | x8 | x8 | x8 | x8 | x8 | x8 | x8 | x8 | x8 | x8 | x8 | x8 | x8 | x8 | x8 | x8 | %92
 x8 | x8 | x8 |][M:3/4] x6 | x6 | x6 | x6 | x6 | x6 | x6 | x6 | x6 | x6 | x6 | x6 | x6 | x6 | x6 | %110
 x6 | x6 | x6 | x6 | x6 | x6 | x6 | x6 | x6 | x6 | x6 | x6 | x6 | x6 | x6 | x6 | x6 | x6 | x6 | %129
 x6 | x6 | x6 | x6 | x6 | x6 | x6 | x6 | x6 | x6 | x6 | x6 | x6 | x6 | x6 | x6 | x3 B,2 B, | x6 | %147
 B,E, F,2 x2 | x6 | x6 | x6 |][M:4/4] x8 | x8 | x8 | x8 | x8 | x8 | x8 | x8 | x8 | x8 | x8 | x8 | %163
 x8 | x8 | x8 | x8 | x8 | x8 | x8 | x8 | x8 | x8 | x8 | x8 | x8 | x8 | x8 | x8 | x8 | x8 | x8 | %182
 x8 | x8 | x8 | x8 | x8 | x8 | x8 | x8 | x8 | x8 | x8 | x8 | x8 | x8 | x8 | x8 | x8 | x8 | x8 | %201
 x8 | x8 | x8 | x8 | x8 | x8 | x8 | x8 | x8 | x8 | x8 | x8 | x8 | x8 | x8 | x8 | x8 | x8 | x8 | %220
 x8 | x8 | x8 | x8 | x8 | x8 | x8 | x8 | x8 | x8 | x8 | x8 | x8 |] %233
V:9
 x8 | x8 | x8 | x8 | x8 | x8 | x8 | x8 | x8 | x8 | x8 | x8 | x8 | x8 | x8 | x8 | x8 | x8 | x8 | %19
 x8 | x8 | x8 | x8 | x8 | x8 | x8 | x8 | x8 | x8 |][M:4/4] x8 | x8 | x8 | x8 | x8 | x8 | x8 | x8 | %37
 x8 | x8 | x8 | x8 | x8 | x8 | x8 | x8 | x8 | x8 | x8 | x8 | x8 | x8 | x8 | x8 | x8 | x8 | x8 | %56
 x8 | x8 | x8 | x8 | x8 | x8 | x8 | x8 | x8 | x8 | x8 | x8 | x8 | x8 | x8 | x8 | x8 | x8 | x8 | %75
 x8 | x8 | x8 | x8 | x8 | x8 | x8 | x8 | x8 | x8 | x8 | x8 | x8 | x8 | x8 | x8 | x8 | x8 | x8 | %94
 x8 |][M:3/4] x6 | x6 | x6 | x4 F2 | x6 | x6 | x6 | x6 | x6 | x6 | x6 | x6 | x6 | x6 | x6 | x6 | %111
 x6 | x6 | x6 | x6 | x6 | x6 | x6 | x6 | x6 | x6 | x6 | x6 | x6 | x6 | x6 | x6 | x6 | x6 | x6 | %130
 x6 | x6 | x6 | x6 | x6 | x6 | x6 | x6 | x6 | x6 | x6 | x6 | x6 | x6 | x6 | x6 | x6 | x6 | x6 | %149
 x6 | x6 |][M:4/4] x8 | x8 | x8 | x8 | x8 | x8 | x8 | x8 | x8 | x8 | x8 | x8 | x8 | x8 | x8 | x8 | %167
 x8 | x8 | x8 | x8 | x8 | x8 | x8 | x8 | x8 | x8 | x8 | x8 | x8 | x8 | x8 | x8 | x8 | x8 | x8 | %186
 x8 | x8 | x8 | x8 | x8 | x8 | x8 | x8 | x8 | x8 | x8 | x8 | x8 | x8 | x8 | x8 | x8 | x8 | x8 | %205
 x8 | x8 | x8 | x8 | x8 | x8 | x8 | x8 | x8 | x8 | x8 | x8 | x8 | x8 | x8 | x8 | x8 | x8 | x8 | %224
 x8 | x8 | x8 | x8 | x8 | x8 | x8 | x8 | x8 |] %233

